X: 10
T: O'Sullivan's March
R: jig
M: 6/8
L: 1/8
K: Dmaj
|: [A,F] |D2 E F2 A | BAF E2 [A,D] | D2 E F2 D | FEE EG/F/E |
D2 E F2 A | BAF E2 [A,A] | D2 E FDD | EDD D2 :|
|: F/A/ |B2 B BAF | BcB B2 F | A2 A AA/B/c | BAF A2 c |
d/e/fd B/c/dB | AFD E3 | D2 E FDD | EDD D2 :|


Tune 2204	Setting 27381

